archdroid-icon-theme/Archdroid-Red/places/scalable/folder-go.svg

<svg fill="#F44336" viewBox="0 0 48 48" xmlns="http://www.w3.org/2000/svg" xmlns:xlink="http://www.w3.org/1999/xlink"><clipPath id="a"><path d="m-35.56-105.49h500.21v314.11h-500.21z"/></clipPath><clipPath id="b"><path d="m-35.56-105.49h500.21v314.11h-500.21z"/></clipPath><clipPath id="c"><path d="m-35.56-105.49h500.21v314.11h-500.21z"/></clipPath><clipPath id="d"><path d="m-35.56-105.49h500.21v314.11h-500.21z"/></clipPath><clipPath id="e"><path d="m-35.56-105.49h500.21v314.11h-500.21z"/></clipPath><clipPath id="f"><path d="m-35.56-105.49h500.21v314.11h-500.21z"/></clipPath><clipPath id="g"><path d="m-35.56-105.49h500.21v314.11h-500.21z"/></clipPath><clipPath id="h"><path d="m-35.56-105.49h500.21v314.11h-500.21z"/></clipPath><clipPath id="i"><path d="m-35.56-105.49h500.21v314.11h-500.21z"/></clipPath><path d="m8 8c-2.21 0-3.98 1.79-3.98 4l-.02 24c0 2.21 1.79 4 4 4h32c2.21 0 4-1.79 4-4v-20c0-2.21-1.79-4-4-4h-16l-4-4zm19.459 13.11c3.403 0 6.646.364 8.99 2.385.667-.464 1.323-.647 1.92-.625 2.601.096 4.102 4.045.752 5.221.637 2.373.781 4.816.818 7.281h-24.25c-.162-2.295-.197-4.58.389-6.84-3.392-1.133-1.879-4.965.723-5.152.608-.044 1.273.114 1.949.549 2.216-1.943 5.381-2.555 8.709-2.818" fill="#F44336"/><g fill-rule="evenodd"><path clip-path="url(#c)" d="m16.572 24.57c-.472.038-.887.273-1.178.799-.585 1.057.042 1.732.959 2.24.372-1.092.887-1.992 1.506-2.746-.441-.195-.884-.325-1.287-.293" fill="#F44336"/><path clip-path="url(#b)" d="m52.13 19.49c-.302-.024-.629.054-.959.166.513.558.975 1.211 1.369 1.986.085.209.155.42.23.631.668-.478 1.029-1.097.537-1.984-.291-.525-.706-.761-1.178-.799m-1.514.383.014.023h.002l-.014-.023c-.001 0-.001 0-.002 0zm2.027 2.479c-.154.103-.31.205-.488.295l.002.002c.178-.09.331-.195.486-.297" fill="#F44336" transform="translate(-14.07 4.478)"/><g fill="none" stroke="#F44336" stroke-linecap="round"><g stroke-width="13.966"><path clip-path="url(#e)" d="m206.17 94.16c10.838 63 113.82 46.34 99.03-17.197-13.264-56.98-102.63-41.21-99.03 17.197" transform="matrix(.07518 0 0 .07518 12.759 20.13)"/><path clip-path="url(#f)" d="m83.1 104.35c14.05 54.85 101.86 40.807 98.55-14.213-3.966-65.895-111.98-53.18-98.55 14.213" transform="matrix(.07518 0 0 .07518 12.759 20.13)"/></g><path clip-path="url(#g)" d="m27.883 32.576c-.054-.007-.115.004-.172.006-.034.697-.137 1.377-.049 2.076.147.344.457.585.824.643.266-.12.573-.152.73-.449.111-.626-.004-1.28-.018-1.875-.41-.155-.842-.391-1.316-.4z" stroke-width="1.05"/></g><path d="m20.828125 26.0918a1.114914 1.207616 0 0 0 -1.115234 1.207028 1.114914 1.207616 0 0 0 1.115234 1.207031 1.114914 1.207616 0 0 0 1.115234-1.207031 1.114914 1.207616 0 0 0 -1.115234-1.207028m.488281 1.17383a.262846.306904 0 0 1 .017578 0 .262846.306904 0 0 1 .263672.306636.262846.306904 0 0 1 -.263672.30664.262846.306904 0 0 1 -.261714-.30664.262846.306904 0 0 1 .244136-.306636" fill="#F44336"/><path d="m30.16992 25.791016a1.096343 1.207616 0 0 0 -1.09765 1.207031 1.096343 1.207616 0 0 0 1.09765 1.207033 1.096343 1.207616 0 0 0 1.09571-1.207033 1.096343 1.207616 0 0 0 -1.09571-1.207031m.480471 1.173828a.258485.306904 0 0 1 .017578 0 .258485.306904 0 0 1 .257812.306636.258485.306904 0 0 1 -.257812.306645.258485.306904 0 0 1 -.257813-.306645.258485.306904 0 0 1 .240235-.306636" fill="#F44336"/><g stroke="#F44336"><g stroke-linecap="round" stroke-width="1.05"><path clip-path="url(#d)" d="m27.543 29.2c-.784.081-1.516.523-1.482 1.309.003.024.016.044.021.066-.863.14-1.539 1.165-1.084 1.988.624 1.13 2.02-.1 2.885.016.999.02 1.817 1.056 2.619.188.843-.913-.248-1.79-1.213-2.24.073-.139.1-.295.053-.471-.177-.657-1.014-.937-1.799-.855z" fill="#fff"/><g fill="none"><path clip-path="url(#i)" d="m27.646 32.584c-.389.036-.845.238-1.283.361-.138.04-.275.071-.406.086-.001 0-.001 0-.002 0-.336 1.221.393 3.236 1.643 1.59-.087-.686.013-1.354.049-2.037z"/><path clip-path="url(#a)" d="m27.543 29.2c-.784.081-1.516.523-1.482 1.309.003.024.016.044.021.066-.863.14-1.539 1.165-1.084 1.988.624 1.13 2.02-.1 2.885.016.999.02 1.817 1.056 2.619.188.843-.913-.248-1.79-1.213-2.24.073-.139.1-.295.053-.471-.177-.657-1.014-.937-1.799-.855z"/></g></g><path clip-path="url(#h)" d="m176.91 138.04c-.893-20.891 38.938-23.503 43.642-6.02 4.692 17.446-41.681 21.498-43.642 6.02z" fill="none" stroke-width="13.966" transform="matrix(.07518 0 0 .07518 12.759 20.13)"/></g></g></svg>

<svg fill="#F44336" viewBox="0 0 48 48" xmlns="http://www.w3.org/2000/svg" xmlns:xlink="http://www.w3.org/1999/xlink"><defs><clipPath id="a"><path d="m-35.56-105.49h500.21v314.11h-500.21z" fill="#fff" fill-rule="evenodd" stroke="#fff" stroke-width="2"/></clipPath><clipPath id="b"><path d="m-35.56-105.49h500.21v314.11h-500.21z" fill="#fff" fill-rule="evenodd" stroke="#fff" stroke-width="2"/></clipPath><clipPath id="c"><path d="m-35.56-105.49h500.21v314.11h-500.21z" fill="#fff" fill-rule="evenodd" stroke="#fff" stroke-width="2"/></clipPath><clipPath id="d"><path d="m-35.56-105.49h500.21v314.11h-500.21z" fill="#fff" fill-rule="evenodd" stroke="#fff" stroke-width="2"/></clipPath><clipPath id="e"><path d="m-35.56-105.49h500.21v314.11h-500.21z" fill="#fff" fill-rule="evenodd" stroke="#fff" stroke-width="2"/></clipPath><clipPath id="f"><path d="m-35.56-105.49h500.21v314.11h-500.21z" fill="#fff" fill-rule="evenodd" stroke="#fff" stroke-width="2"/></clipPath><clipPath id="g"><path d="m-35.56-105.49h500.21v314.11h-500.21z" fill="#fff" fill-rule="evenodd" stroke="#fff" stroke-width="2"/></clipPath><clipPath id="h"><path d="m-35.56-105.49h500.21v314.11h-500.21z" fill="#fff" fill-rule="evenodd" stroke="#fff" stroke-width="2"/></clipPath><clipPath id="i"><path d="m-35.56-105.49h500.21v314.11h-500.21z" fill="#fff" fill-rule="evenodd" stroke="#fff" stroke-width="2"/></clipPath></defs><path d="m8 8c-2.21 0-3.98 1.79-3.98 4l-.02 24c0 2.21 1.79 4 4 4h32c2.21 0 4-1.79 4-4v-20c0-2.21-1.79-4-4-4h-16l-4-4h-12m19.459 13.11c3.403 0 6.646.364 8.99 2.385.667-.464 1.323-.647 1.92-.625 2.601.096 4.102 4.045.752 5.221.637 2.373.781 4.816.818 7.281h-24.25c-.162-2.295-.197-4.58.389-6.84-3.392-1.133-1.879-4.965.723-5.152.608-.044 1.273.114 1.949.549 2.216-1.943 5.381-2.555 8.709-2.818"/><g fill-rule="evenodd"><path clip-path="url(#c)" d="m16.572 24.57c-.472.038-.887.273-1.178.799-.585 1.057.042 1.732.959 2.24.372-1.092.887-1.992 1.506-2.746-.441-.195-.884-.325-1.287-.293"/><path clip-path="url(#b)" d="m52.13 19.49c-.302-.024-.629.054-.959.166.513.558.975 1.211 1.369 1.986.085.209.155.42.23.631.668-.478 1.029-1.097.537-1.984-.291-.525-.706-.761-1.178-.799m-1.514.383l.014.023c.001 0 .001 0 .002 0l-.014-.023c-.001 0-.001 0-.002 0zm2.027 2.479c-.154.103-.31.205-.488.295l.002.002c.178-.09.331-.195.486-.297" transform="translate(-14.07 4.478)"/><g fill="none" stroke="#F44336" stroke-linecap="round"><g stroke-width="13.966"><path clip-path="url(#e)" d="m206.17 94.16c10.838 63 113.82 46.34 99.03-17.197-13.264-56.98-102.63-41.21-99.03 17.197" transform="matrix(.07518 0 0 .07518 12.759 20.13)"/><path clip-path="url(#f)" d="m83.1 104.35c14.05 54.85 101.86 40.807 98.55-14.213-3.966-65.895-111.98-53.18-98.55 14.213" transform="matrix(.07518 0 0 .07518 12.759 20.13)"/></g><path clip-path="url(#g)" d="m27.883 32.576c-.054-.007-.115.004-.172.006-.034.697-.137 1.377-.049 2.076.147.344.457.585.824.643.266-.12.573-.152.73-.449.111-.626-.004-1.28-.018-1.875-.41-.155-.842-.391-1.316-.4z" stroke-width="1.05"/></g><path d="M20.828125 26.0918A1.114914 1.207616 0 0 0 19.712891 27.298828 1.114914 1.207616 0 0 0  20.828125 28.505859 1.114914 1.207616 0 0 0  21.943359 27.298828 1.114914 1.207616 0 0 0  20.828125 26.0918M21.316406 27.26563A.262846.306904 0 0 1 21.333984 27.26563.262846.306904 0 0 1  21.597656 27.572266.262846.306904 0 0 1  21.333984 27.878906.262846.306904 0 0 1  21.07227 27.572266.262846.306904 0 0 1  21.316406 27.26563"/><path d="M30.16992 25.791016A1.096343 1.207616 0 0 0 29.07227 26.998047 1.096343 1.207616 0 0 0  30.16992 28.20508 1.096343 1.207616 0 0 0  31.26563 26.998047 1.096343 1.207616 0 0 0  30.16992 25.791016M30.650391 26.964844A.258485.306904 0 0 1 30.667969 26.964844.258485.306904 0 0 1  30.925781 27.27148.258485.306904 0 0 1  30.667969 27.578125.258485.306904 0 0 1  30.410156 27.27148.258485.306904 0 0 1  30.650391 26.964844"/><g stroke="#F44336"><g stroke-linecap="round" stroke-width="1.05"><path clip-path="url(#d)" d="m27.543 29.2c-.784.081-1.516.523-1.482 1.309.003.024.016.044.021.066-.863.14-1.539 1.165-1.084 1.988.624 1.13 2.02-.1 2.885.016.999.02 1.817 1.056 2.619.188.843-.913-.248-1.79-1.213-2.24.073-.139.1-.295.053-.471-.177-.657-1.014-.937-1.799-.855z" fill="#fff"/><g fill="none"><path clip-path="url(#i)" d="m27.646 32.584c-.389.036-.845.238-1.283.361-.138.04-.275.071-.406.086-.001 0-.001 0-.002 0-.336 1.221.393 3.236 1.643 1.59-.087-.686.013-1.354.049-2.037z"/><path clip-path="url(#a)" d="m27.543 29.2c-.784.081-1.516.523-1.482 1.309.003.024.016.044.021.066-.863.14-1.539 1.165-1.084 1.988.624 1.13 2.02-.1 2.885.016.999.02 1.817 1.056 2.619.188.843-.913-.248-1.79-1.213-2.24.073-.139.1-.295.053-.471-.177-.657-1.014-.937-1.799-.855z"/></g></g><path clip-path="url(#h)" d="m176.91 138.04c-.893-20.891 38.938-23.503 43.642-6.02 4.692 17.446-41.681 21.498-43.642 6.02z" fill="none" stroke-width="13.966" transform="matrix(.07518 0 0 .07518 12.759 20.13)"/></g></g></svg>
